img/UX-icon.svg

<svg width="46" height="47" viewBox="0 0 46 47" fill="none" xmlns="http://www.w3.org/2000/svg">
<path fill-rule="evenodd" clip-rule="evenodd" d="M22.9747 46.5235C35.6205 46.5235 45.872 36.272 45.872 23.6262C45.872 10.9804 35.6205 0.728882 22.9747 0.728882C10.3288 0.728882 0.0773544 10.9804 0.0773544 23.6262C0.0773544 36.272 10.3288 46.5235 22.9747 46.5235Z" fill="#F04037" fill-opacity="0.1"/>
<path d="M24.2003 15.2593L29.4213 17.5778C30.9257 18.2415 30.9257 19.3388 29.4213 20.0025L24.2003 22.321C23.6074 22.5864 22.634 22.5864 22.0411 22.321L16.8201 20.0025C15.3157 19.3388 15.3157 18.2415 16.8201 17.5778L22.0411 15.2593C22.634 14.9938 23.6074 14.9938 24.2003 15.2593Z" stroke="#F04037" stroke-width="1.32738" stroke-linecap="round" stroke-linejoin="round"/>
<path d="M15.3422 22.4094C15.3422 23.1528 15.8997 24.0111 16.5811 24.312L22.5897 26.9845C23.0499 27.188 23.572 27.188 24.0233 26.9845L30.0319 24.312C30.7133 24.0111 31.2708 23.1528 31.2708 22.4094" stroke="#F04037" stroke-width="1.32738" stroke-linecap="round" stroke-linejoin="round"/>
<path d="M15.3422 26.834C15.3422 27.657 15.8289 28.4003 16.5811 28.7366L22.5897 31.409C23.0499 31.6126 23.572 31.6126 24.0233 31.409L30.0319 28.7366C30.7841 28.4003 31.2708 27.657 31.2708 26.834" stroke="#F04037" stroke-width="1.32738" stroke-linecap="round" stroke-linejoin="round"/>
</svg>

<svg xmlns="http://www.w3.org/2000/svg" fill="none" viewBox="0 0 46 47"><path fill="#F04037" fill-opacity=".1" fill-rule="evenodd" d="M22.975 46.523c12.645 0 22.897-10.251 22.897-22.897C45.872 10.98 35.62.73 22.975.73 10.329.729.077 10.98.077 23.626c0 12.646 10.252 22.897 22.898 22.897z" clip-rule="evenodd"/><path stroke="#F04037" stroke-linecap="round" stroke-linejoin="round" stroke-width="1.327" d="m24.2 15.26 5.221 2.318c1.505.663 1.505 1.76 0 2.425l-5.22 2.318c-.594.265-1.567.265-2.16 0l-5.22-2.319c-1.505-.663-1.505-1.76 0-2.424l5.22-2.319c.593-.265 1.566-.265 2.16 0z"/><path stroke="#F04037" stroke-linecap="round" stroke-linejoin="round" stroke-width="1.327" d="M15.342 22.41c0 .743.558 1.601 1.24 1.902l6.008 2.672c.46.204.982.204 1.433 0l6.009-2.672c.681-.3 1.239-1.16 1.239-1.903"/><path stroke="#F04037" stroke-linecap="round" stroke-linejoin="round" stroke-width="1.327" d="M15.342 26.834c0 .823.487 1.566 1.24 1.903l6.008 2.672c.46.204.982.204 1.433 0l6.009-2.672a2.086 2.086 0 0 0 1.239-1.903"/></svg>
